images_elementary_svg/cmd/32/ko/bold.svg

<svg height="32" width="32" xmlns="http://www.w3.org/2000/svg" xmlns:xlink="http://www.w3.org/1999/xlink"><radialGradient id="a" cx="13.201247" cy="12.676107" gradientTransform="matrix(.14879841 3.7199544 -2.819107 .11276447 46.972225 -39.269329)" gradientUnits="userSpaceOnUse" r="6.700386"><stop offset="0" stop-color="#737373"/><stop offset=".26238" stop-color="#636363"/><stop offset=".704952" stop-color="#4b4b4b"/><stop offset="1" stop-color="#3f3f3f"/></radialGradient><radialGradient id="b" cx="40" cy="43.5" gradientTransform="matrix(1 0 0 .75 -37.806295 12.33033)" gradientUnits="userSpaceOnUse" r="2" xlink:href="#e"/><radialGradient id="c" cx="9" cy="43.5" gradientTransform="matrix(1 0 0 .75 -10.11138 12.375)" gradientUnits="userSpaceOnUse" r="2" xlink:href="#e"/><linearGradient id="d" gradientUnits="userSpaceOnUse" x1="17" x2="17" xlink:href="#f" y1="46.5" y2="43.5"/><linearGradient id="e"><stop offset="0"/><stop offset="1" stop-opacity="0"/></linearGradient><linearGradient id="f" gradientUnits="userSpaceOnUse" x1="17" x2="17" y1="46.5" y2="43.5"><stop offset="0" stop-opacity="0"/><stop offset=".5"/><stop offset="1" stop-opacity="0"/></linearGradient><g transform="matrix(.98177497 0 0 1.313771 24.846276 -29.590351)"><path d="m2.1937049 43.45533v3h.5c.8310005 0 1.5000005-.669 1.5000005-1.5s-.669-1.5-1.5000005-1.5z" fill="url(#b)" opacity=".2"/><path d="m-1.7051301 43.5c-.7790625 0-1.40625.627187-1.40625 1.40625v.1875c0 .779063.6271875 1.40625 1.40625 1.40625h.59375v-3z" fill="url(#c)" opacity=".2"/><path d="m-1.1113801 43.5h3.305085v3h-3.305085z" fill="url(#d)" opacity=".2"/></g><path d="m7.7599225 12.023618v2.333362h6.8223055c-.422227 4.533389-2.688922 7.733428-7.9112077 10.24457l1.5333521 2.311139c7.2667556-3.511154 9.3778926-8.622328 9.3778926-14.889071zm12.8450005-2.2669704-.000153 20.4005104h3.021999l.000153-20.4005104z" fill="url(#a)" stroke="#000" stroke-opacity=".6" stroke-width=".755564" transform="matrix(1.3235144 0 0 1.32351432 -3.770369 -10.41343)"/><g transform="matrix(.98177497 0 0 1.313771 6.846276 -34.031666)"><path d="m2.1937049 43.45533v3h.5c.8310005 0 1.5000005-.669 1.5000005-1.5s-.669-1.5-1.5000005-1.5z" fill="url(#b)" opacity=".2"/><path d="m-1.7051301 43.5c-.7790625 0-1.40625.627187-1.40625 1.40625v.1875c0 .779063.6271875 1.40625 1.40625 1.40625h.59375v-3z" fill="url(#c)" opacity=".2"/><path d="m-1.1113801 43.5h3.305085v3h-3.305085z" fill="url(#f)" opacity=".2"/></g><path d="m23.5 2.5v1.5h4v-1.5zm-16.9999534 2.9991015v1.5h12.9667974c.0217-.4943613.0332-.9941264.0332-1.5zm8.8242194 4.5898435c-.903672 5.21426-3.946763 9.020162-10.2656257 12.058594l.7441406 1.121094c6.3760151-3.266301 9.1885441-7.403048 9.7265631-13.179688z" fill="#f5f2f8" opacity=".2" transform="matrix(1.00000001 0 0 1 .000001 0)"/></svg>

<?xml version="1.0" encoding="UTF-8" standalone="no"?>
<svg
   xmlns:dc="http://purl.org/dc/elements/1.1/"
   xmlns:cc="http://creativecommons.org/ns#"
   xmlns:rdf="http://www.w3.org/1999/02/22-rdf-syntax-ns#"
   xmlns:svg="http://www.w3.org/2000/svg"
   xmlns="http://www.w3.org/2000/svg"
   xmlns:xlink="http://www.w3.org/1999/xlink"
   xmlns:sodipodi="http://sodipodi.sourceforge.net/DTD/sodipodi-0.dtd"
   xmlns:inkscape="http://www.inkscape.org/namespaces/inkscape"
   height="32"
   width="32"
   version="1.1"
   id="svg41"
   sodipodi:docname="bold.svg"
   inkscape:version="0.92.4 (unknown)"
   inkscape:export-filename="/home/rizmut/Dokumen/Rizmut/Github/libreoffice-style-elementary/images_elementary/cmd/32/ko/bold.png"
   inkscape:export-xdpi="96"
   inkscape:export-ydpi="96">
  <metadata
     id="metadata47">
    <rdf:RDF>
      <cc:Work
         rdf:about="">
        <dc:format>image/svg+xml</dc:format>
        <dc:type
           rdf:resource="http://purl.org/dc/dcmitype/StillImage" />
        <dc:title />
      </cc:Work>
    </rdf:RDF>
  </metadata>
  <defs
     id="defs45">
    <radialGradient
       inkscape:collect="always"
       xlink:href="#c"
       id="radialGradient860"
       cx="13.201247"
       cy="12.676107"
       fx="13.201247"
       fy="12.676107"
       r="6.7003856"
       gradientTransform="matrix(0.14879841,3.7199544,-2.819107,0.11276447,46.972225,-39.269329)"
       gradientUnits="userSpaceOnUse" />
    <radialGradient
       inkscape:collect="always"
       xlink:href="#c"
       id="radialGradient3345"
       gradientUnits="userSpaceOnUse"
       gradientTransform="matrix(0.14879841,3.7199544,-2.819107,0.11276447,46.972225,-39.269329)"
       cx="13.201247"
       cy="12.676107"
       fx="13.201247"
       fy="12.676107"
       r="6.7003856" />
    <radialGradient
       inkscape:collect="always"
       xlink:href="#a"
       id="radialGradient3355"
       gradientUnits="userSpaceOnUse"
       gradientTransform="matrix(1,0,0,0.75,-37.806295,12.33033)"
       cx="40"
       cy="43.5"
       r="2" />
    <radialGradient
       inkscape:collect="always"
       xlink:href="#a"
       id="radialGradient3357"
       gradientUnits="userSpaceOnUse"
       gradientTransform="matrix(1,0,0,0.75,-10.11138,12.375)"
       cx="9"
       cy="43.5"
       r="2" />
    <linearGradient
       inkscape:collect="always"
       xlink:href="#b"
       id="linearGradient3359"
       gradientUnits="userSpaceOnUse"
       x1="17"
       y1="46.5"
       x2="17"
       y2="43.5" />
  </defs>
  <sodipodi:namedview
     pagecolor="#ffffff"
     bordercolor="#666666"
     borderopacity="1"
     objecttolerance="10"
     gridtolerance="10"
     guidetolerance="10"
     inkscape:pageopacity="0"
     inkscape:pageshadow="2"
     inkscape:window-width="1366"
     inkscape:window-height="714"
     id="namedview43"
     showgrid="true"
     inkscape:zoom="16"
     inkscape:cx="17.322006"
     inkscape:cy="18.375708"
     inkscape:window-x="0"
     inkscape:window-y="28"
     inkscape:window-maximized="1"
     inkscape:current-layer="g39">
    <inkscape:grid
       type="xygrid"
       id="grid854" />
  </sodipodi:namedview>
  <linearGradient
     id="a">
    <stop
       offset="0"
       id="stop2" />
    <stop
       offset="1"
       stop-opacity="0"
       id="stop4" />
  </linearGradient>
  <linearGradient
     id="b"
     gradientUnits="userSpaceOnUse"
     x1="17"
     x2="17"
     y1="46.5"
     y2="43.5">
    <stop
       offset="0"
       stop-opacity="0"
       id="stop7" />
    <stop
       offset=".5"
       id="stop9" />
    <stop
       offset="1"
       stop-opacity="0"
       id="stop11" />
  </linearGradient>
  <radialGradient
     id="c"
     cx="13.325464"
     cy="8.331412"
     gradientTransform="matrix(-3.7117719 .11187051 -.21033005 -6.7825606 65.528784 64.934853)"
     gradientUnits="userSpaceOnUse"
     r="5.349211">
    <stop
       offset="0"
       stop-color="#737373"
       id="stop14" />
    <stop
       offset=".26238"
       stop-color="#636363"
       id="stop16" />
    <stop
       offset=".704952"
       stop-color="#4b4b4b"
       id="stop18" />
    <stop
       offset="1"
       stop-color="#3f3f3f"
       id="stop20" />
  </radialGradient>
  <radialGradient
     id="d"
     cx="40"
     cy="43.5"
     gradientTransform="matrix(1,0,0,0.75,-37.806295,12.33033)"
     gradientUnits="userSpaceOnUse"
     r="2"
     xlink:href="#a" />
  <radialGradient
     id="e"
     cx="9"
     cy="43.5"
     gradientTransform="matrix(1,0,0,0.75,-10.11138,12.375)"
     gradientUnits="userSpaceOnUse"
     r="2"
     xlink:href="#a" />
  <g
     transform="matrix(1.33333 0 0 1.313771 -1.472041 -10.913521)"
     id="g39">
    <g
       id="g3353"
       transform="matrix(0.73633307,0,0,1,19.738787,-14.216199)">
      <path
         inkscape:connector-curvature="0"
         style="opacity:0.2;fill:url(#radialGradient3355)"
         id="path3347"
         d="m 2.1937049,43.45533 v 3 h 0.5 c 0.8310005,0 1.5000005,-0.669 1.5000005,-1.5 0,-0.831 -0.669,-1.5 -1.5000005,-1.5 z" />
      <path
         inkscape:connector-curvature="0"
         style="opacity:0.2;fill:url(#radialGradient3357)"
         id="path3349"
         d="m -1.7051301,43.5 c -0.7790625,0 -1.40625,0.627187 -1.40625,1.40625 v 0.1875 c 0,0.779063 0.6271875,1.40625 1.40625,1.40625 h 0.59375 v -3 z" />
      <path
         sodipodi:nodetypes="ccccc"
         style="opacity:0.2;fill:url(#linearGradient3359)"
         inkscape:connector-curvature="0"
         id="path3351"
         d="m -1.1113801,43.5 h 3.305085 v 3 h -3.305085 z" />
    </g>
    <g
       aria-label="기"
       transform="matrix(0.99263828,0,0,1.0074163,-1.7237504,0.38065275)"
       style="font-style:normal;font-weight:normal;font-size:22.22249413px;line-height:1.25;font-family:sans-serif;letter-spacing:0px;word-spacing:0px;fill:url(#radialGradient860);fill-opacity:1;stroke:#000000;stroke-width:0.75556415;stroke-opacity:0.60000002;stroke-miterlimit:4;stroke-dasharray:none"
       id="text858">
      <path
         d="m 7.7599225,12.023618 v 2.333362 h 6.8223055 c -0.422227,4.533389 -2.688922,7.733428 -7.9112077,10.24457 l 1.5333521,2.311139 C 15.471128,23.401535 17.582265,18.290361 17.582265,12.023618 Z M 20.604923,9.7566476 20.60477,30.157158 h 3.021999 l 1.53e-4,-20.4005104 z"
         style="font-style:normal;font-variant:normal;font-weight:bold;font-stretch:normal;font-family:'Droid Sans';-inkscape-font-specification:'Droid Sans Bold';fill:url(#radialGradient3345);fill-opacity:1;stroke:#000000;stroke-width:0.75556415;stroke-miterlimit:4;stroke-dasharray:none;stroke-opacity:0.6"
         id="path3342"
         inkscape:connector-curvature="0"
         sodipodi:nodetypes="cccccccccccc" />
    </g>
    <g
       transform="matrix(0.73633307,0,0,1,6.2387529,-17.596784)"
       id="g31">
      <path
         d="m 2.1937049,43.45533 v 3 h 0.5 c 0.8310005,0 1.5000005,-0.669 1.5000005,-1.5 0,-0.831 -0.669,-1.5 -1.5000005,-1.5 z"
         id="path25"
         style="opacity:0.2;fill:url(#d)"
         inkscape:connector-curvature="0" />
      <path
         d="m -1.7051301,43.5 c -0.7790625,0 -1.40625,0.627187 -1.40625,1.40625 v 0.1875 c 0,0.779063 0.6271875,1.40625 1.40625,1.40625 h 0.59375 v -3 z"
         id="path27"
         style="opacity:0.2;fill:url(#e)"
         inkscape:connector-curvature="0" />
      <path
         d="m -1.1113801,43.5 h 3.305085 v 3 h -3.305085 z"
         id="path29"
         inkscape:connector-curvature="0"
         style="opacity:0.2;fill:url(#b)"
         sodipodi:nodetypes="ccccc" />
    </g>
    <path
       style="font-style:normal;font-variant:normal;font-weight:bold;font-stretch:normal;font-size:22.22249413px;line-height:1.25;font-family:'Droid Sans';-inkscape-font-specification:'Droid Sans Bold';letter-spacing:0px;word-spacing:0px;opacity:0.2;fill:#f5f2f8;fill-opacity:1;stroke:none;stroke-width:0.73529482"
       d="M 23.5,2.5 V 4 h 4 V 2.5 Z M 6.5000466,5.4991015 v 1.5 H 19.466844 c 0.0217,-0.4943613 0.0332,-0.9941264 0.0332,-1.5 z m 8.8242194,4.5898435 c -0.903672,5.21426 -3.946763,9.020162 -10.2656257,12.058594 l 0.7441406,1.121094 C 12.178796,20.002332 14.991325,15.865585 15.529344,10.088945 Z"
       transform="matrix(0.75000188,0,0,0.76116766,1.1040335,8.3070193)"
       id="path3380"
       inkscape:connector-curvature="0"
       sodipodi:nodetypes="ccccccccccccccc" />
  </g>
</svg>
